icons/coin.svg

<?xml version="1.0" encoding="UTF-8" standalone="no"?>
<svg
   xmlns:dc="http://purl.org/dc/elements/1.1/"
   xmlns:cc="http://creativecommons.org/ns#"
   xmlns:rdf="http://www.w3.org/1999/02/22-rdf-syntax-ns#"
   xmlns:svg="http://www.w3.org/2000/svg"
   xmlns="http://www.w3.org/2000/svg"
   xmlns:xlink="http://www.w3.org/1999/xlink"
   xmlns:sodipodi="http://sodipodi.sourceforge.net/DTD/sodipodi-0.dtd"
   xmlns:inkscape="http://www.inkscape.org/namespaces/inkscape"
   width="128"
   height="128"
   viewBox="0 0 128 128"
   id="svg2"
   version="1.1"
   inkscape:version="0.91 r13725"
   sodipodi:docname="com.github.lainsce.coin.svg">
  <sodipodi:namedview
     pagecolor="#ffffff"
     bordercolor="#666666"
     borderopacity="1"
     objecttolerance="10"
     gridtolerance="10"
     guidetolerance="10"
     inkscape:pageopacity="0"
     inkscape:pageshadow="2"
     inkscape:window-width="1920"
     inkscape:window-height="962"
     id="namedview41"
     showgrid="false"
     inkscape:zoom="3.6875"
     inkscape:cx="54.802808"
     inkscape:cy="60.271695"
     inkscape:window-x="0"
     inkscape:window-y="30"
     inkscape:window-maximized="1"
     inkscape:current-layer="svg2" />
  <defs
     id="defs4">
    <linearGradient
       id="linearGradient23419">
      <stop
         id="stop23421"
         style="stop-color:#000000;stop-opacity:1"
         offset="0" />
      <stop
         id="stop23423"
         style="stop-color:#000000;stop-opacity:0"
         offset="1" />
    </linearGradient>
    <radialGradient
       xlink:href="#linearGradient23419"
       id="radialGradient6470"
       cx="335.5932"
       cy="198.53047"
       fx="335.5932"
       fy="198.53047"
       r="43.118645"
       gradientTransform="matrix(1.0204402,0,0,0.32468554,-278.45281,41.54177)"
       gradientUnits="userSpaceOnUse" />
    <radialGradient
       xlink:href="#linearGradient23419"
       id="radialGradient6474"
       gradientUnits="userSpaceOnUse"
       gradientTransform="matrix(0.69575467,0,0,0.23191824,-169.49054,63.95891)"
       cx="335.5932"
       cy="198.53047"
       fx="335.5932"
       fy="198.53047"
       r="43.118645" />
    <linearGradient
       xlink:href="#linearGradient4140"
       id="linearGradient6456"
       x1="288"
       y1="106"
       x2="384"
       y2="202"
       gradientUnits="userSpaceOnUse"
       gradientTransform="translate(-272,-90.00005)" />
    <linearGradient
       id="linearGradient4140">
      <stop
         id="stop4142"
         offset="0"
         style="stop-color:#f9c440;stop-opacity:1" />
      <stop
         style="stop-color:#fff394;stop-opacity:1"
         offset="0.50190115"
         id="stop5784" />
      <stop
         id="stop4144"
         offset="1"
         style="stop-color:#f9c440;stop-opacity:1" />
    </linearGradient>
    <linearGradient
       xlink:href="#linearGradient4806-2-9"
       id="linearGradient3118-0"
       gradientUnits="userSpaceOnUse"
       gradientTransform="matrix(4.2047027,0,0,4.2047027,-239.47907,-53.172067)"
       x1="71.204407"
       y1="15.369057"
       x2="71.204407"
       y2="40.495617" />
    <linearGradient
       id="linearGradient4806-2-9">
      <stop
         id="stop4808-4-6"
         style="stop-color:#ffffff;stop-opacity:1"
         offset="0" />
      <stop
         id="stop4810-0-9"
         style="stop-color:#ffffff;stop-opacity:0.23529412"
         offset="0.42447853" />
      <stop
         id="stop4812-8-7"
         style="stop-color:#ffffff;stop-opacity:0.15686275"
         offset="0.82089913" />
      <stop
         id="stop4814-0-7"
         style="stop-color:#ffffff;stop-opacity:0.39215687"
         offset="1" />
    </linearGradient>
    <linearGradient
       xlink:href="#linearGradient4251"
       id="linearGradient6458"
       x1="304"
       y1="98"
       x2="368"
       y2="210"
       gradientUnits="userSpaceOnUse"
       gradientTransform="matrix(1.0125,0,0,1.0125,-404.19995,-219.92497)" />
    <linearGradient
       id="linearGradient4251">
      <stop
         id="stop4259"
         offset="0"
         style="stop-color:#cccccc;stop-opacity:1" />
      <stop
         style="stop-color:#f4f4f4;stop-opacity:1"
         offset="0.51999998"
         id="stop6460" />
      <stop
         style="stop-color:#c1c1c1;stop-opacity:1"
         offset="1"
         id="stop4183" />
    </linearGradient>
    <linearGradient
       xlink:href="#linearGradient4806-2-9"
       id="linearGradient6442"
       gradientUnits="userSpaceOnUse"
       gradientTransform="matrix(-3.3882554,0,0,-3.3882554,308.55109,158.42014)"
       x1="71.204407"
       y1="15.369057"
       x2="71.204407"
       y2="40.495617" />
    <linearGradient
       xlink:href="#linearGradient4806-2-9"
       id="linearGradient6438"
       gradientUnits="userSpaceOnUse"
       gradientTransform="matrix(3.2249659,0,0,3.2249659,-168.76548,-25.869841)"
       x1="71.204407"
       y1="15.369057"
       x2="71.204407"
       y2="40.495617" />
  </defs>
  <metadata
     id="metadata7">
    <rdf:RDF>
      <cc:Work
         rdf:about="">
        <dc:format>image/svg+xml</dc:format>
        <dc:type
           rdf:resource="http://purl.org/dc/dcmitype/StillImage" />
        <dc:title />
      </cc:Work>
    </rdf:RDF>
  </metadata>
  <path
     style="opacity:0.2;fill:url(#radialGradient6470);fill-opacity:1;fill-rule:nonzero;stroke:none;stroke-width:1"
     id="path3818-0-5-0-7"
     d="m 108,106.00174 a 44,14 0 0 1 -88,0 44,14 0 1 1 88,0 z"
     inkscape:connector-curvature="0" />
  <path
     d="m 94,110.00175 a 30,10 0 0 1 -60,0 30,10 0 1 1 60,0 z"
     id="path6472"
     style="opacity:0.5;fill:url(#radialGradient6474);fill-opacity:1;fill-rule:nonzero;stroke:none;stroke-width:1"
     inkscape:connector-curvature="0" />
  <path
     d="m 64,11.49997 c -28.96769,0 -52.5,23.5323 -52.5,52.49999 0,28.96769 23.53231,52.50001 52.5,52.49999 28.96768,0 52.50001,-23.5323 52.5,-52.49999 C 116.5,35.03227 92.96768,11.49997 64,11.49997 Z"
     id="path2555-7"
     style="color:#000000;display:inline;overflow:visible;visibility:visible;fill:url(#linearGradient6456);fill-opacity:1;fill-rule:nonzero;stroke:#6e5b0e;stroke-width:0.99999994;stroke-opacity:0.54166667;marker:none;enable-background:accumulate"
     inkscape:connector-curvature="0" />
  <path
     style="color:#000000;display:inline;overflow:visible;visibility:visible;opacity:0.6;fill:none;fill-rule:nonzero;stroke:url(#linearGradient3118-0);stroke-width:1;stroke-linecap:round;stroke-linejoin:round;stroke-miterlimit:4;stroke-dasharray:none;stroke-dashoffset:0;stroke-opacity:1;marker:none;enable-background:accumulate"
     id="path3019"
     d="m 115.5,63.99996 c 0,28.44266 -23.05735,51.49999 -51.50003,51.49999 C 35.55735,115.49995 12.5,92.44262 12.5,63.99996 c 0,-28.44266 23.05735,-51.5 51.49997,-51.5 28.44268,0 51.50003,23.05734 51.50003,51.5 z"
     inkscape:connector-curvature="0" />
  <circle
     transform="matrix(0,-1,-1,0,0,0)"
     r="40.5"
     style="display:inline;opacity:1;fill:url(#linearGradient6458);fill-opacity:1;fill-rule:nonzero;stroke:#000000;stroke-width:1;stroke-miterlimit:4;stroke-dasharray:none;stroke-opacity:0.25098039;enable-background:new"
     id="path4238-7-1"
     cx="-63.99995"
     cy="-64" />
  <path
     style="color:#000000;display:inline;overflow:visible;visibility:visible;opacity:0.4;fill:none;fill-rule:nonzero;stroke:url(#linearGradient6442);stroke-width:1;stroke-linecap:round;stroke-linejoin:round;stroke-miterlimit:4;stroke-dasharray:none;stroke-dashoffset:0;stroke-opacity:1;marker:none;enable-background:accumulate"
     id="path6440"
     d="m 22.50001,63.99996 c 0,-22.91981 18.58019,-41.49999 41.50002,-41.49999 22.91978,0 41.49998,18.58018 41.49998,41.49999 0,22.91982 -18.5802,41.5 -41.49998,41.5 -22.91983,0 -41.50002,-18.58018 -41.50002,-41.5 z"
     inkscape:connector-curvature="0" />
  <path
     d="m 103.5,63.99996 c 0,21.81524 -17.68477,39.49999 -39.50002,39.49999 C 42.18477,103.49995 24.5,85.8152 24.5,63.99996 24.5,42.18472 42.18477,24.49997 63.99998,24.49997 85.81523,24.49997 103.5,42.18472 103.5,63.99996 Z"
     id="path6436"
     style="color:#000000;display:inline;overflow:visible;visibility:visible;opacity:0.8;fill:none;fill-rule:nonzero;stroke:url(#linearGradient6438);stroke-width:1;stroke-linecap:round;stroke-linejoin:round;stroke-miterlimit:4;stroke-dasharray:none;stroke-dashoffset:0;stroke-opacity:1;marker:none;enable-background:accumulate"
     inkscape:connector-curvature="0" />
  <rect
     y="37.99995"
     x="59"
     height="52"
     width="10"
     id="rect6444"
     style="opacity:0.1;fill:#000000;fill-opacity:1;fill-rule:nonzero;stroke:none;stroke-width:2;stroke-linecap:round;stroke-linejoin:round;stroke-miterlimit:4;stroke-dasharray:none;stroke-dashoffset:0;stroke-opacity:0.69019608" />
  <rect
     style="opacity:0.05;fill:none;fill-opacity:1;fill-rule:nonzero;stroke:#000000;stroke-width:1;stroke-linecap:round;stroke-linejoin:round;stroke-miterlimit:4;stroke-dasharray:none;stroke-dashoffset:0;stroke-opacity:1"
     id="rect6446"
     width="9"
     height="51"
     x="59.5"
     y="38.49995" />
  <rect
     style="opacity:0.5;fill:#ffffff;fill-opacity:1;fill-rule:nonzero;stroke:none;stroke-width:2;stroke-linecap:round;stroke-linejoin:round;stroke-miterlimit:4;stroke-dasharray:none;stroke-dashoffset:0;stroke-opacity:0.69019608"
     id="rect6462"
     width="10"
     height="1"
     x="59"
     y="89.999947" />
  <rect
     style="opacity:0.02000002;fill:#000000;fill-opacity:1;fill-rule:nonzero;stroke:none;stroke-width:2;stroke-linecap:round;stroke-linejoin:round;stroke-miterlimit:4;stroke-dasharray:none;stroke-dashoffset:0;stroke-opacity:0.69019608"
     id="rect6478"
     width="10"
     height="1"
     x="59"
     y="38.99995" />
</svg>

<svg xmlns="http://www.w3.org/2000/svg" width="128" height="128" xmlns:xlink="http://www.w3.org/1999/xlink"><defs><linearGradient id="a"><stop offset="0"/><stop offset="1" stop-opacity="0"/></linearGradient><radialGradient id="e" cx="335.6" cy="198.5" r="43.1" xlink:href="#a" fx="335.6" fy="198.5" gradientTransform="matrix(1.02 0 0 .325 -278.453 41.542)" gradientUnits="userSpaceOnUse"/><radialGradient id="f" cx="335.6" cy="198.5" r="43.1" xlink:href="#a" gradientUnits="userSpaceOnUse" gradientTransform="matrix(.696 0 0 .232 -169.49 63.96)" fx="335.6" fy="198.5"/><linearGradient id="g" x1="288" x2="384" y1="106" y2="202" xlink:href="#b" gradientUnits="userSpaceOnUse" gradientTransform="translate(-272 -90)"/><linearGradient id="b"><stop offset="0" stop-color="#f9c440"/><stop offset=".5" stop-color="#fff394"/><stop offset="1" stop-color="#f9c440"/></linearGradient><linearGradient id="h" x1="71.2" x2="71.2" y1="15.4" y2="40.5" xlink:href="#c" gradientUnits="userSpaceOnUse" gradientTransform="translate(-239.48 -53.172) scale(4.205)"/><linearGradient id="c"><stop offset="0" stop-color="#fff"/><stop offset=".4" stop-color="#fff" stop-opacity=".2"/><stop offset=".8" stop-color="#fff" stop-opacity=".2"/><stop offset="1" stop-color="#fff" stop-opacity=".4"/></linearGradient><linearGradient id="i" x1="304" x2="368" y1="98" y2="210" xlink:href="#d" gradientUnits="userSpaceOnUse" gradientTransform="translate(-404.2 -219.925) scale(1.012)"/><linearGradient id="d"><stop offset="0" stop-color="#ccc"/><stop offset=".5" stop-color="#f4f4f4"/><stop offset="1" stop-color="#c1c1c1"/></linearGradient><linearGradient id="j" x1="71.2" x2="71.2" y1="15.4" y2="40.5" xlink:href="#c" gradientUnits="userSpaceOnUse" gradientTransform="rotate(180 154.275 79.21) scale(3.388)"/><linearGradient id="k" x1="71.2" x2="71.2" y1="15.4" y2="40.5" xlink:href="#c" gradientUnits="userSpaceOnUse" gradientTransform="translate(-168.765 -25.87) scale(3.225)"/></defs><path fill="url(#e)" d="M108 106a44 14 0 0 1-88 0 44 14 0 1 1 88 0z" opacity=".2"/><path fill="url(#f)" d="M94 110a30 10 0 0 1-60 0 30 10 0 1 1 60 0z" opacity=".5"/><path fill="url(#g)" stroke="#6e5b0e" stroke-opacity=".5" d="M64 11.5C35 11.5 11.5 35 11.5 64S35 116.5 64 116.5 116.5 93 116.5 64 93 11.5 64 11.5z" color="#000" overflow="visible"/><path fill="none" stroke="url(#h)" d="M115.5 64c0 28.4-23 51.5-51.5 51.5-28.4 0-51.5-23-51.5-51.5 0-28.4 23-51.5 51.5-51.5 28.4 0 51.5 23 51.5 51.5z" color="#000" overflow="visible" opacity=".6" stroke-linecap="round" stroke-linejoin="round"/><circle cx="-64" cy="-64" r="40.5" fill="url(#i)" stroke="#000" stroke-opacity=".3" transform="matrix(0 -1 -1 0 0 0)"/><path fill="none" stroke="url(#j)" d="M22.5 64C22.5 41 41 22.5 64 22.5S105.5 41 105.5 64 87 105.5 64 105.5 22.5 87 22.5 64z" color="#000" overflow="visible" opacity=".4" stroke-linecap="round" stroke-linejoin="round"/><path fill="none" stroke="url(#k)" d="M103.5 64c0 21.8-17.7 39.5-39.5 39.5S24.5 85.8 24.5 64 42.2 24.5 64 24.5s39.5 17.7 39.5 39.5z" color="#000" overflow="visible" opacity=".8" stroke-linecap="round" stroke-linejoin="round"/><path d="M59 38h10v52H59z" opacity=".1"/><path fill="none" stroke="#000" d="M59.5 38.5h9v51h-9z" opacity=".1" stroke-linecap="round" stroke-linejoin="round"/><path fill="#fff" d="M59 90h10v1H59z" opacity=".5"/></svg>
